X:104
T:First House in Connaught
Z: id:dc-reel-96
M:C
L:1/8
K:G Major
GE|DGG2 AGG2|BddB AGFE|DFF2 AFF2|ABcA BGAF|!
DGG2 AGG2|BddB AGFA|defg agfd|cAFA G2:|!
Bd|g2ga gfdf|g2bg gede|fede fgaf|g2ag bgaf|!
gfga gfdf|g2bg ged^c|defg agfd|cAFA G2:|!

